!!!COM: Schiørring, Niels
!!!CDT: 1743-1798
!!!OPR@@DA: Choral-Bog
!!!ONM: 71b
!!!OTL@@DA: Raglet til u. En anden Melodie
**kern	**fb	**kern	**kern	**kern	**kern	**kern	**kern	**kern
*part6	*part6	*part6	*part5	*part5	*part4	*part3	*part2	*part1
*staff8	*	*staff7	*staff6	*staff5	*staff4	*staff3	*staff2	*staff1
*clefF4	*	*clefC1	*clefF4	*clefC1	*clefF4	*clefC4	*clefC3	*clefC1
*mclefF4	*	*mclefG2	*mclefF4	*mclefG2	*mclefF4	*mclefGv2	*mclefG2	*mclefG2
*k[b-e-a-]	*	*k[b-e-a-]	*k[b-e-a-]	*k[b-e-a-]	*k[b-e-a-]	*k[b-e-a-]	*k[b-e-a-]	*k[b-e-a-]
*E-:	*	*E-:	*E-:	*E-:	*E-:	*E-:	*E-:	*E-:
*M4/4	*	*M4/4	*M4/4	*M4/4	*M4/4	*M4/4	*M4/4	*M4/4
*met(c)	*	*met(c)	*met(c)	*met(c)	*met(c)	*met(c)	*met(c)	*met(c)
*MM180	*	*MM180	*MM180	*MM180	*MM180	*MM180	*MM180	*MM180
*	*above	*	*	*	*	*	*	*
*	*slash	*	*	*	*	*	*	*
=1	=1	=1	=1	=1	=1	=1	=1	=1
*	*	*	*^	*^	*	*	*	*
2C	.	2g	1ryy	2C	2c	2e-	2C	2c	2e-	2g
2BB-	6	2g	.	2BB-	2d	2d	2BB-	2d	2d	2g
=2	=2	=2	=2	=2	=2	=2	=2	=2	=2	=2
2AA-	.	2cc	2ryy	2AA-	2c	2e-	2AA-	2c	2e-	2cc
2F	.	2cc	2A-	2F	2cc	2f	2F	2A-	2f	2cc
=3	=3	=3	=3	=3	=3	=3	=3	=3	=3	=3
2D	6	2b-	1B-	2D	2b-	2f	2D	2B-	2f	2b-
2E-	.	2g	.	2E-	2g	[2e-	2E-	2B-	[2e-	2g
=4	=4	=4	=4	=4	=4	=4	=4	=4	=4	=4
2BB-	4	(4.f	2B-	2BB-	(4.f	4e-]	2BB-	2B-	(4e-]	(4.f
.	3	.	.	.	.	4d	.	.	4d)	.
.	.	16gLL	.	.	16gLL	.	.	.	.	16gLL
.	.	16a-JJ)	.	.	16a-JJ)	.	.	.	.	16a-JJ)
*	*	*	*	*	*	*	*^	*	*	*
2EE-	.	2g	2B-	2E-	2g	2e-	2E-	2EE-	2B-	2e-	2g
*	*	*	*	*	*	*	*v	*v	*	*	*
=5	=5	=5	=5	=5	=5	=5	=5	=5	=5	=5
2E-	nr4	2an	2c	2E-	2an	1f	2E-	2c	2f	2an
2D	nr6	2bn	2d	2D	2bn	.	2D	2d	2f	2bn
=6	=6	=6	=6	=6	=6	=6	=6	=6	=6	=6
2A-Xi	6	2cc	2c	2A-Xi	2cc	2f	2A-	2c	2f	2cc
2G	6	2ee-	2B-Xi	2G	2ee-	2g	2G	2B-	2e-	2ee-
=7	=7	=7	=7	=7	=7	=7	=7	=7	=7	=7
2F	6	2dd	2ryy	2F	2f	2a-X	2F	2A-	2f	2dd
2F#X	7 5	2cc	2e-	2F#X	2cc	2an	2F#X	2A	2e-	2cc
=8	=8	=8	=8	=8	=8	=8	=8	=8	=8	=8
1G	4	2cc	1d	1G	2cc	1g	2G	2G	2d	2cc
.	n	2bn	.	.	2bn	.	2G	2G	2d	2bn
=9	=9	=9	=9	=9	=9	=9	=9	=9	=9	=9
*	*	*	*	*	*	*^	*	*	*	*
2B-Xi	nr4	2cc	2c	2B-Xi	2cc	2g	2en\	2BB-	2G	2en	2cc
*	*	*	*	*	*	*v	*v	*	*	*	*
2An	6	2cc	2c	2An	2cc	2f	2AAn	[2c	2f	2cc
=10	=10	=10	=10	=10	=10	=10	=10	=10	=10	=10
2D	7	2ff	4c	2D	2ff	4f	2D	(4c]	(4f	2ff
.	nr6	.	4Bn	.	.	4g	.	4B)	4g)	.
2C	.	2ee-	[2c	2C	2ee-Xi	2g	2C	[2c	2g	2ee-
=11	=11	=11	=11	=11	=11	=11	=11	=11	=11	=11
2A-	4 3	(4dd	2c]	2A-	4dd	1f	2A-	2c]	2f	(4dd
.	.	4cc)	.	.	4cc	.	.	.	.	4cc)
2G	7 n	2dd	2Bn	2G	2dd	.	2G	2B	2f	2dd
=12	=12	=12	=12	=12	=12	=12	=12	=12	=12	=12
1C	.	1cc	1c	1C	1cc	1e-	1C	1c	1e-	1cc
=13	=13	=13	=13	=13	=13	=13	=13	=13	=13	=13
2AA-	.	2cc	2ryy	2AA-	2e-	2a-	2AA-	2c	2e-	2cc
2A-	.	2cc	2e-	2A-	2cc	2a-	2A-	2c	2e-	2cc
=14	=14	=14	=14	=14	=14	=14	=14	=14	=14	=14
2G	-r5	2dd-X	2e-	2G	2dd-X	2b-	2G	2B-	2e-	2dd-X
*	*	*	*	*	*	*^	*	*	*	*
2A-	.	2cc	[2c	2A-	2cc	2a-	2e-\	2A-	[2c	2e-	2cc
*	*	*	*	*	*	*v	*v	*	*	*	*
=15	=15	=15	=15	=15	=15	=15	=15	=15	=15	=15
1D-X	7	2f	2c]	1D-X	2f	2f	2D-X	2c]	2f	2f
.	6	2b-	2B-	.	2b-	2f	2D-	(4B-	2f	2b-
.	.	.	.	.	.	.	.	[4d-X)	.	.
=16	=16	=16	=16	=16	=16	=16	=16	=16	=16	=16
2E-	-7	2g	2B-	2E-	2g	2d-X	2E-	(4d-]	2e-	2g
.	.	.	.	.	.	.	.	8cL	.	.
.	.	.	.	.	.	.	.	8B-J)	.	.
2AA-	.	2a-	2A-	2AA-	2a-	2c	2AA-	2c	2e-	2a-
=17	=17	=17	=17	=17	=17	=17	=17	=17	=17	=17
2G	6	2b-	1ryy	2G	2e-	2g	2G	2B-	2e-	2b-
2E-	.	2b-	.	2E-	2e-	2g	2E-	2B-	2g	2b-
=18	=18	=18	=18	=18	=18	=18	=18	=18	=18	=18
2D	5	2a-	1B-	2D	2a-	2f	2D	2B-	2f	2a-
2E-	.	2g	.	2E-	2g	[2g	2E-	2B-	[2g	2g
=19	=19	=19	=19	=19	=19	=19	=19	=19	=19	=19
1AA-	7	2.cc	1ryy	1AA-	1c	2g]	2AA-	2c	2g]	2.cc
.	#6\	.	.	.	.	2f#X	2AA-	2c	2f#X	.
.	.	4dd	.	.	.	.	.	.	.	4dd
=20	=20	=20	=20	=20	=20	=20	=20	=20	=20	=20
1GG	4	2cc	1ryy	1GG	1d	1g	2GG	2d	2g	2cc
.	n	2bn	.	.	.	.	2GG	2d	2g	2bn
=21	=21	=21	=21	=21	=21	=21	=21	=21	=21	=21
2En	-r5	2cc	1ryy	2En	2g	2b-Xi	2En	2B-	2g	2cc
2F	8 n	2cc	.	2F	2an	2an	2F	2A	(4f	2cc
.	7	.	.	.	.	.	.	.	4e-)	.
=22	=22	=22	=22	=22	=22	=22	=22	=22	=22	=22
2BBn	-7 5	2ff	4ryy	2BBn	4a-Xi	2dd	2BBn	(4A-Xi	(4d	2ff
.	6	.	4ryy	.	4g	.	.	4G)	4g)	.
*	*	*	*	*	*	*^	*	*	*	*
2C	.	2ee-Xi	[2c	2C	2ee-Xi	2ee-Xi	2g\	2C	[2c	2g	2ee-
=23	=23	=23	=23	=23	=23	=23	=23	=23	=23	=23	=23
1GG	4	(4dd	2c]	1G	(4dd	1g	1r	2GG	2c]	2.g	(4dd
.	.	4cc)	.	.	4cc)	.	.	.	.	.	4cc)
.	n	2dd	2Bn	.	2dd	.	.	2GG	2B	.	2dd
.	.	.	.	.	.	.	.	.	.	4f	.
=24	=24	=24	=24	=24	=24	=24	=24	=24	=24	=24	=24
1C	.	1cc	1c	1C	1cc	1g	1e-\	1C	1c	1e-	1cc
*	*	*	*v	*v	*	*	*	*	*	*	*
*	*	*	*	*v	*v	*v	*	*	*	*
==	==	==	==	==	==	==	==	==
*-	*-	*-	*-	*-	*-	*-	*-	*-
!!!system-decoration: {(s1,s2,s3,s4)}{(s5,s6)}{(s7,s8)}
!!!RDF**kern: i = editorial accidental, paren
!!!RDF**kern: > = above
!!!RDF**kern: < = below
!!!AGN: chorale
!!!EED: Derek Remeš
!!!EED2: Victor Phan
!!!END: 2023/11/28
!!!ENC: Wolfgang Drescher
!!!EEV: 2023/12/12
!!!title: @{ONM}. @{OTL}
!!!verovio: mnumInterval 1